X:1
T:Title
%%score { ( 1 4 ) | ( 2 3 ) }
L:1/8
Q:1/4=100
M:3/4
K:Bb
V:1 treble nm="Grand Piano"
V:4 treble 
V:2 bass 
V:3 bass 
V:1
 [DF]3 [_D=E] [=DF]2 | [DB]2 [Ec]2 [Fd]2 | G4 B2 | F6 | A2 B2 c2 | F2 A2 c2 | [Ge]4 [^Fe]2 | %7
w: E.~O.~Sellers * *|||||||
 [Fd]6 | [Fd]3 [=E_d] [F=d]2 | [DB]2 [Ec]2 [Fd]2 | [Ge]4 [EG]2 | [Gd]4 c2 | B3 A G2 | %13
w: ||||||
 [DF]2 [FB]2 [Gc]2 | d4 c2 | [DB]6 | [Fd]3 [Ec] [DB]2 | [Ge]3 [Fd] [Ec]2 | [DB]2 [FB]2 c2 | d6 | %20
w: |||||||
 B3 [^FA] B2 | G2 A2 B2 | [=EBd]4 [Ec]2 |[M:7/8] c- c3 z z2 |[M:3/4] [B,DF]3 [B,_D=E] [=DF]2 | %25
w: |||||
 [DB]2 [Ec]2 [Fd]2 | [Ge]2 [GB]2 [Gc]2 | d4 z2 | [GB]3 [FA] [EG]2 | [DF]2 [FB]2 [Gc]2 | d4 c2 | %31
w: ||||||
 [DB]6 |] %32
w: |
V:2
 [B,,B,]3 [B,,B,] [B,,B,]2 | [B,,B,]2 [B,,B,]2 [B,,B,]2 | [E,B,E]4 [G,B,E]2 | [B,D]6 | %4
 [F,CF]2 [F,DF]2 [F,EF]2 | A,2 [F,CF]2 [F,A,F]2 | [B,,B,]4 B,,2 | [B,,B,]6 | %8
 [B,,B,]3 [B,,B,] [B,,B,]2 | [B,,B,]2 [B,,B,]2 [B,,B,]2 | [E,B,]4 [E,B,]2 | B,4[K:treble] [E^F]2 | %12
 [F,DF]3[K:bass] [F,CE] [F,A,E]2 | [B,,B,]2 [D,B,]2 [E,B,]2 | [F,B,F]4 [F,E]2 | [B,,F,]6 | %16
 [B,,B,]3 [B,,B,] [B,,B,]2 | [B,,B,]3 [B,,B,] [B,,B,]2 | [B,,B,]2 [D,B,]2[K:treble] [F,A,F]2 | %19
 [B,F]6 | [G,DG]3 [D,D] [G,DG]2 | [G,B,D]2 [G,CD]2 [G,DG]2 | C,4 [C,B,]2 |[M:7/8] z z z2 F3 | %24
[M:3/4] B,,3 B,, B,,2 | [B,,B,]2 [B,,B,]2 [B,,B,]2 | [E,B,]2 [E,B,]2 [E,G,]2 | [D,A,]6 | %28
 [E,G,]3 [E,A,] [E,B,]2 | [B,,B,]2 [D,B,]2 [E,B,]2 | [F,B,F]4 [F,E]2 | [B,,F,]6 |] %32
V:3
 x6 | x6 | x6 | x6 | x6 | x6 | x6 | x6 | x6 | x6 | x6 | E,6[K:treble] | x3[K:bass] x3 | x6 | x6 | %15
 x6 | x6 | x6 | x4[K:treble] x2 | x6 | x6 | x6 | x6 | %23
[M:7/8] [F,A,]-[F,A,]-[F,A,]- [F,A,]- [F,A,]3 |[M:3/4] x6 | x6 | x6 | x6 | x6 | x6 | x6 | x6 |] %32
V:4
 x6 | x6 | x6 | x6 | x6 | x6 | x6 | x6 | x6 | x6 | x6 | x6 | x6 | x6 | x6 | x6 | x6 | x6 | x6 | %19
 x6 | x6 | x6 | x6 |[M:7/8] E-E-E- E- E2- E/ z/ |[M:3/4] x6 | x6 | x6 | ^F4- [Fc]2 | x6 | x6 | x6 | %31
 x6 |] %32

